pix_core/movehere.svg

<svg height="16" preserveAspectRatio="xMinYMid meet" viewBox="0 0 80 16" width="80" xmlns="http://www.w3.org/2000/svg"><g fill="#fff"><path d="m25.4 1.5h3.5v1h-3.5zm-1 0h1v3h-1zm1 13v-4h-1v4h.5zm5-13h3v1h-3zm4.5 0h3v1h-3zm-10.5 4.5h1v3h-1zm42-4.5h3v1h-3zm-9 0h3v1h-3zm4.5 0h3v1h-3zm9 0h3v1h-3zm-22.5 0h3v1h-3zm4.5 0h3v1h-3zm-9 0h3v1h-3zm-4.5 0h3v1h-3zm-5.5 12h3v1h-3zm36 0h3v1h-3zm7.5 0h-3v1h3v-.5zm-12 0h3v1h-3zm10-12v1h2v2.5h1v-3.5zm-14.5 12h3v1h-3z"/><path d="m25 13.5h-.5v1h3.4v-1zm52.4-7h1v3h-1zm0 7.4v.6h1v-3.5h-1zm-39-.4h3v1h-3zm-9 0h3v1h-3zm13.5 0h3v1h-3zm13.5 0h3v1h-3zm-9 0h3v1h-3zm4.5 0h3v1h-3z"/><path d="m13 4 4 4-4 4m4-4h-14.2"/></g></svg>

<svg xmlns="http://www.w3.org/2000/svg" width="80" height="16" viewBox="0 0 80 16" preserveAspectRatio="xMinYMid meet">
    <path fill="#fff" d="M25.4 1.5h3.5v1h-3.5zM24.4 1.5h1v3h-1zM25.4 14.5v-4h-1v4h.5zM30.4 1.5h3v1h-3zM34.9 1.5h3v1h-3zM24.4 6h1v3h-1zM66.4 1.5h3v1h-3zM57.4 1.5h3v1h-3zM61.9 1.5h3v1h-3zM70.9 1.5h3v1h-3zM48.4 1.5h3v1h-3zM52.9 1.5h3v1h-3zM43.9 1.5h3v1h-3zM39.4 1.5h3v1h-3zM33.9 13.5h3v1h-3zM69.9 13.5h3v1h-3zM77.4 13.5h-3v1h3V14zM65.4 13.5h3v1h-3zM75.4 1.5v1h2V5h1V1.5zM60.9 13.5h3v1h-3z"/>
    <path fill="#fff" d="M25 13.5h-.5v1h3.4v-1zM77.4 6.5h1v3h-1zM77.4 13.9v.6h1V11h-1zM38.4 13.5h3v1h-3zM29.4 13.5h3v1h-3zM42.9 13.5h3v1h-3zM56.4 13.5h3v1h-3zM47.4 13.5h3v1h-3zM51.9 13.5h3v1h-3z"/>
    <path fill="#fff" d="M13 4l4 4-4 4m4-4H2.8"/>
</svg>
